X:1
T:[ID 8-87b]
T:[ID 8-87b]
T:Bezeichnung standardisiert: Walzer Walzer Rusche
T:Urheber unbekannt Datum in der hier transkribierten schriftlichen Quelle: 1792
C:Urheber unbekannt
C:Datum in der hier transkribierten schriftlichen Quelle: 1792
L:1/8
M:3/8
K:D
V:1 treble 
V:1
 D/F/A/F/A/F/ | def | g/f/g/e/d/c/ | dfa | D/F/A/F/A/F/ | dfa | g/f/g/e/d/c/ | d3 :: DEF | GAB | %10
 AA/B/c/A/ | d3 | D/F/A/F/A/F/ | dfa | g/f/g/e/d/c/ | d3 :| %16

